X:1
T:Title
%%score { 1 | ( 2 3 ) }
L:1/8
Q:1/4=100
M:6/8
K:Db
V:1 treble nm="Grand Piano"
V:2 bass 
V:3 bass 
V:1
 [DF]2 [EG] [FA][GB][Ec] | [Fd]2 [Ge] [Af]3 | [Ge]2 [Gd] [Ac]2 [GB] | [FA]3 .[Fd]3 | %4
w: Carrie~A.~Varney * * * *||||
 [GB]2 [Ac] [Bd][Ac][GB] | [FA]2 [EG] F3 | EEA =GFG | [DB]3 [CA]3 | [CE]2 [DF] [EG]F[A,EG] | %9
w: |||||
 [A,FA]2 [A,EG] [A,DF]3 | [CE][DF][EG] [GB][FA][EG] | [DF]3 .[FA]3 | %12
w: |||
 [FA][_F=G][=FA] [Fd][_Gc][DAd] | [DAc]2 [DGB] [DGB]3 | [DFA][DFA][DFA] [CGA][B,=GB][_Gc] | %15
w: |||
 [Ge]3 .[Fd]3 | [Fd][Fd][Fd] [Fd][Ec][Fd] | c3 c3 | BBB [Bd][Ac][GB] | [GB]3 .[FA]3 | %20
w: |||||
 [DF]2 [EG] [FA]=G[DFA] | [DAd]2 [DAc] .[DGB]3 | [DFA][DFA][DFA] [CGA][B,GB][Gc] | [Ge]3 .[Fd]3 |] %24
w: ||||
V:2
 [D,A,]2 [D,A,] [D,A,]2 [D,A,] | [D,A,]2 [D,D] [D,D]3 | [G,B,]2 [G,B,] [G,D]2 [G,D] | [D,D]6 | %4
 [G,D]2 [G,D] [G,D]2 [G,D] | [D,D]2 [D,A,] [D,A,D]3 | [E,A,C][E,A,C][E,C] [E,D][E,D][E,D] | %7
 [A,,E,]3 [A,,E,]3 | [A,,A,]2 [A,,A,] z DA,, | A,,B,,C, D,3 | %10
 [A,,A,][A,,A,][A,,A,] [A,,A,][A,,A,][A,,A,] | [D,A,]3 .[D,D]3 | [D,D]2 [D,D] A,-[E,A,]F, | %13
 G,2 G, G,3 | A,A,A, A,,A,,[A,,A,] | [D,A,]3 .[D,A,]3 | %16
 [B,,B,][B,,B,][B,,B,] [B,,B,][B,,B,][B,,B,] | [F,=A,F]3 [F,A,E]3 | %18
 [G,B,D][G,DG][G,DG] [G,D][G,D][G,D] | [D,D]3 .[D,D]3 | z3 .[D,D]3 | F,2 F, .G,3 | %22
 A,A,A, A,,A,,[A,,A,] | [D,A,]3 .[D,A,]3 |] %24
V:3
 x6 | x6 | x6 | x6 | x6 | x6 | x6 | x6 | z3 .[A,,A,]3 | x6 | x6 | x6 | z3 .D,3 | x6 | x6 | x6 | %16
 x6 | x6 | x6 | x6 | [D,A,]2 [D,A,] z _FD, | x6 | x6 | x6 |] %24

